X:1
T:Waltz in C# Minor
T:Waltz in C# Minor
T:Op 64 No 2
T:Frederic Chopin
C:Frederic Chopin
%%score { ( 1 3 ) | ( 2 4 ) }
L:1/8
Q:1/4=110
M:3/4
K:E
V:1 treble nm="Piano" snm="Pno."
V:3 treble 
V:2 bass 
V:4 bass 
V:1
"^Tempo Giusto" (G2- |!>(! [Ge]6 | [=Gd]6)!>)! | z!<(! ([FG]{/B}[FA]z/[FG]/ [Fd]2)!<)! | %4
 z!<(! ([FG]{/B}[FA]z/[FG]/ [Ec]2)!<)! |!>(! ([Ec]6 | [D^B]6)!>)! | %7
 z!<(! ([=DE]{/G}[DF]z/[DE]/ [DB]2)!<)! | z!<(! ([=DE]{/G}[CF]z/[CE]/ [CA]2)!<)! | [^B,F]6 | %10
!<(! E6!<)! | [DA]6 |!<(! G4 G2 | ^^cd dg!<)! g^^f | ^^f^f f^e e=e | ed d=d dc | c^B B=B BA | %17
!>(! ([Ge]6 | [=Gd]6)!>)! | z!<(! ([FG]{/B}[FA]z/[FG]/ [Fd]2)!<)! | %20
 z!<(! ([FG]{/B}[FA]z/[FG]/ [Ec]2)!<)! |!>(! ([Ec]6 | [D^B]6)!>)! | %23
 z!<(! ([=DE]{/G}[DF]z/[DE]/ [DB]2)!<)! | z!<(! ([=DE]{/G}[CF]z/[CE]/ [CA]2)!<)! | [^B,F]6 | %26
!<(! ^E6!<)! | (d4 c2-) | ((cF FG GA | c4 B2-)) | (BA GPF EF | ^^FG G,E ED | C2) z2 G2 | %33
[Q:1/4=180]"^Piu Mosso"!>(! (gagfdG)!>)! |!>(! (fgfecG)!>)! |!>(! (efed^BF)!>)! | %36
!>(! (dedcAE)!>)! |!>(! (cdcADc)!>)! |!>(! (cdcGCG)!>)! |!<(! (!>!GG,DGAG | ^^FG^Bcef)!<)! | %41
!>(! (gagfdG)!>)! |!>(! (fgfecG)!>)! |!>(! (efed^BF)!>)! |!>(! (dedcAE)!>)! |!>(! (ABc=def | %46
 =g^gabc'=d' |!8va(! d'e' ^e'f' ^^f'g' | c''2)!>)!!8va)! z2 G2 |!>(! (gagfdG)!>)! | %50
!>(! (fgfecG)!>)! |!>(! (efed^BF)!>)! |!>(! (dedcAE)!>)! |!>(! (cdcADc)!>)! |!>(! (cdcGCG)!>)! | %55
!<(! (!>!GG,DGAG | ^^FG^Bcef)!<)! |!>(! (gagfdG)!>)! |!>(! (fgfecG)!>)! |!>(! (efed^BF)!>)! | %60
!>(! (dedcAE)!>)! |!>(! (ABc=def | =g^gabc'=d' |!8va(! d'e' ^e'f' ^^f'g' | c''2)!>)!!8va)! z2 || %65
[K:Db][Q:1/4=100]"^Piu Lento" F2 |!mf!!>(! (f6 | f4 e2- | e4!>)! d2 | c2 B2 F2 | G2) z4 | (g4 f2- | %72
 f2 e3 d | cdfecB | A2) z2!>(! (a2- | a2 g2 f2 | f2 e2 d'2-!>)! |!>(! d'4 d'2-!>)! | d'2 c'3 b | %79
 c'2 b2 __b2 | a2 =g2 _g2 | fcPdcdB | A2) z2!p! (f2- | f4 e2- | e2 d2 =A2 | (8:6:8cB_F=FGFB=A | %86
!<(! (3A=G_G!<)! g) z z2 | z2 z2 (f2- | f2 e2 d2 |{cde} d2 ceBc | A2) z2!>(! (a2- | a2 g3 f!>)! | %92
!<(! f2 e2 d'2- | d'4!<)! d'2- | d'2 c'2 b2 | a2 =g2 _g2 | _f2 e2!>(! d2 | cded_f=G)!>)! || %98
[K:E][Q:1/4=180]"^Piu Mosso"!>(! (GagfdG)!>)! |!>(! (fgfecG)!>)! |!>(! (efed^BF)!>)! | %101
!>(! (dedcAE)!>)! |!>(! (cdcADc)!>)! |!>(! (cdcGCG)!>)! |!<(! (!>!GG,DGAG | ^^FG^Bcef)!<)! | %106
!>(! (gagfdG)!>)! |!>(! (fgfecG)!>)! |!>(! (efed^BF)!>)! |!>(! (dedcAE)!>)! |!>(! (ABc=def | %111
 =g^gabc'=d' |!8va(! d'e' ^e'f' ^^f'g' | c''2)!>)!!8va)! z2 G2 |!>(! (gagfdG)!>)! | %115
!>(! (fgfecG)!>)! |!>(! (efed^BF)!>)! |!>(! (dedcAE)!>)! |!>(! (cdcADc)!>)! |!>(! (cdcGCG)!>)! | %120
!<(! (!>!GG,DGAG | ^^FG^Bcef)!<)! |!>(! (gagfdG)!>)! |!>(! (fgfecG)!>)! |!>(! (efed^BF)!>)! | %125
!>(! (dedcAE)!>)! |!>(! (ABc=def | =g^gabc'=d' |!8va(! d'e' ^e'f' ^^f'g' | %129
 c''2)!>)!!8va)! z2[Q:1/4=110]"^Tempo I" (G2- |!>(! [Ge]6 | [=Gd]6)!>)! | %132
 z!<(! ([FG]{/B}[FA]z/[FG]/ [Fd]2)!<)! | z!<(! ([FG]{/B}[FA]z/[FG]/ [Ec]2)!<)! |!>(! ([Ec]6 | %135
 [D^B]6)!>)! | z!<(! ([=DE]{/G}[DF]z/[DE]/ [DB]2)!<)! | z!<(! ([=DE]{/G}[CF]z/[CE]/ [CA]2)!<)! | %138
 [^B,F]6 |!<(! E6!<)! | [DA]6 |!<(! G4 G2 | ^^cd dg!<)! g^^f | ^^f^f f^e e=e | ed d=d dc | %145
 c^B B=B BA |!>(! ([Ge]6 | [=Gd]6)!>)! | z!<(! ([FG]{/B}[FA]z/[FG]/ [Fd]2)!<)! | %149
 z!<(! ([FG]{/B}[FA]z/[FG]/ [Ec]2)!<)! |!>(! ([Ec]6 | [D^B]6)!>)! | %152
 z!<(! ([=DE]{/G}[DF]z/[DE]/ [DB]2)!<)! | z!<(! ([=DE]{/G}[CF]z/[CE]/ [CA]2)!<)! | [^B,F]6 | %155
!<(! ^E6!<)! | (d4 c2-) | ((cF FG GA | c4 B2-)) | (BA GPF EF | ^^FG G,E ED | C2) z2 G2 | %162
[Q:1/4=180]!>(! (gagfdG)!>)! |!>(! (fgfecG)!>)! |!>(! (efed^BF)!>)! |!>(! (dedcAE)!>)! | %166
!>(! (cdcADc)!>)! |!>(! (cdcGCG)!>)! |!<(! (!>!GG,DGAG | ^^FG^Bcef)!<)! |!>(! (gagfdG)!>)! | %171
!>(! (fgfecG)!>)! |!>(! (efed^BF)!>)! |!>(! (dedcAE)!>)! |!>(! (ABc=def | =g^gabc'=d' | %176
!8va(! d'e' ^e'f' ^^f'g' | c''2)!>)!!8va)! z2 G2 |!>(! (gagfdG)!>)! |!>(! (fgfecG)!>)! | %180
!>(! (efed^BF)!>)! |!>(! (dedcAE)!>)! |!>(! (cdcADc)!>)! |!>(! (cdcGCG)!>)! |!<(! (!>!GG,DGAG | %185
 ^^FG^Bcef)!<)! |!>(! (gagfdG)!>)! |!>(! (fgfecG)!>)! |!>(! (efed^BF)!>)! |!>(! (dedcAE)!>)! | %190
!>(! (ABc=def | =g^gabc'=d' |!8va(! d'e' ^e'f' ^^f'g' | c''2)!>)!!8va)! z2 z2 |] %194
V:2
 z2 |!ped! .C,,2 .[G,CE]2 .[G,CE]2!ped-up! |!ped! .D,,2 .[D,^A,C]2 .[D,A,C]2!ped-up! | %3
!ped! .G,,2 .[D,G,^B,]2 .[D,G,B,]2!ped-up! |!ped! .C,2 ([G,D]2 [G,C]2)!ped-up! | %5
!ped! .E,,2 .[E,A,]2 .[E,A,]2!ped-up! |!ped! .E,,2 .[F,A,]2 .[F,A,]2!ped-up! | %7
!ped! .E,,2 .G,2 .[E,G,]2!ped-up! |!ped! .A,,2 .[E,A,]2 .[D,A,]2!ped-up! | %9
!ped! .G,,2 .[G,D]2 .[G,D]2!ped-up! |!ped! .C,2 .G,2 .F,2!ped-up! | %11
!ped! .B,,2 .[B,F]2 .[B,F]2!ped-up! |!ped! E,6!ped-up! |!ped! .D,2[K:treble] .[B,DGB]2 z2!ped-up! | %14
[K:bass]!ped! .D,,2 .[C^^F]2 z2!ped-up! |!ped! .G,,2 .[^B,F]2 z2!ped-up! | z6 | %17
!ped! .C,2 .[G,CE]2 .[G,CE]2!ped-up! |!ped! D,6!ped-up! | %19
!ped! .G,,2 .[D,G,^B,]2 .[D,G,B,]2!ped-up! |!ped! .C,2 ([G,D]2 [G,C]2)!ped-up! | %21
!ped! .E,,2 .[E,A,]2 .[E,A,]2!ped-up! |!ped! .E,,2 .[F,A,]2 .[F,A,]2!ped-up! | %23
!ped! .E,,2 .G,2 .[E,G,]2!ped-up! |!ped! .A,,2 .[E,A,]2 .[D,A,]2!ped-up! | %25
!ped! .G,,2 .[G,D]2 .[G,D]2!ped-up! |!ped! .C,2 .[G,B,C]2 .[G,B,C]2!ped-up! | %27
!ped! .F,,2 .[^A,F]2 .[A,F]2!ped-up! |!ped! .B,,2 .[A,B,]2 .[A,B,]2!ped-up! | %29
!ped! .E,,2 .[B,,G,]2 .^E,,2!ped-up! |!ped! .F,,2 .[D,A,]2 z2!ped-up! | %31
!ped! .G,,2 .[E,C]2 .[F,^B,]2!ped-up! |!ped! .C,,2 .[G,E]2 z2!ped-up! | %33
!ped! .^B,,2 .[G,D]2 .[G,D]2!ped-up! |!ped! .C,2 .[G,E]2 .[G,E]2!ped-up! | %35
!ped! .G,,2 .[F,^B,]2 .[F,B,]2!ped-up! |!ped! .A,,2 .[E,C]2 .[E,C]2!ped-up! | %37
!ped! .F,,2 .[F,C]2 z2!ped-up! |!ped! .G,,2 .[E,G,]2 z2!ped-up! | %39
!ped! .G,,,2 z2 .[F,^B,]2!ped-up! |!ped! .C,2 .[G,E]2 .[G,E]2!ped-up! | %41
!ped! .^B,,2 .[G,D]2 .[G,D]2!ped-up! |!ped! .C,2 .[G,CE]2 .[G,CE]2!ped-up! | %43
!ped! .G,,2 .[F,^B,]2 .[F,B,]2!ped-up! |!ped! .A,,2 .[E,C]2 .[E,C]2!ped-up! | %45
!ped! .G,,2 z2 .[A,=DA]2!ped-up! | z6 |!ped! G,,2 [G,^B,F]2 [G,B,F]2!ped-up! | %48
!ped! .C,2 .[G,E]2 z2!ped-up! |!ped! .^B,,2 .[G,D]2 .[G,D]2!ped-up! | %50
!ped! .C,2 .[G,E]2 .[G,E]2!ped-up! |!ped! .G,,2 .[F,^B,]2 .[F,B,]2!ped-up! | %52
!ped! .A,,2 .[E,C]2 .[E,C]2!ped-up! |!ped! .F,,2 .[F,C]2 z2!ped-up! | %54
!ped! .G,,2 .[E,G,]2 z2!ped-up! |!ped! .G,,,2 z2 .[F,^B,]2!ped-up! | %56
!ped! .C,2 .[G,E]2 .[G,E]2!ped-up! |!ped! .^B,,2 .[G,D]2 .[G,D]2!ped-up! | %58
!ped! .C,2 .[G,CE]2 .[G,CE]2!ped-up! |!ped! .G,,2 .[F,^B,]2 .[F,B,]2!ped-up! | %60
!ped! .A,,2 .[E,C]2 .[E,C]2!ped-up! |!ped! .G,,2 z2 .[A,=DA]2!ped-up! | z6 | %63
!ped! G,,2 [G,^B,F]2 [G,B,F]2!ped-up! |!ped! .C,2 .[G,E]2!ped-up! ||[K:Db] z2 | %66
!ped! .D,,2 .[A,DF]2 [A,DF]2- | [A,DF]2 .[A,DF]2 .[=A,-DF]2!ped-up! | %68
!ped! .[D,A,]2 .[B,E]2 .[B,E]2-!ped-up! |!ped! B,6-!ped-up! | %70
!ped! (.[E,B,]2 .B,2 .[B,G]2-)!ped-up! |!ped! .[B,G]2 .[B,G]2 [_C-G]2!ped-up! | %72
!ped! [E,C]2 .[=CG]2 .[CG]2-!ped-up! |!ped! C6-!ped-up! |!ped! [F,C]2 .[CA]2 .[CA]2!ped-up! | %75
!ped! .F,2 .[B,=DA]2 .[B,DA]2!ped-up! |!ped! .A,2[K:treble] .[B,DG]2 [B,EB]2-!ped-up! | %77
!ped! [B,EB]2 .[B,EB]2 .[B,EB]2!ped-up! |[K:bass]!ped! .=G,2[K:treble] .[D_FB]2 .[DFB]2!ped-up! | %79
!ped! .A,2 .[Fd]2 z2!ped-up! |[K:bass]!ped! .A,,2 z2 .[A,CG]2!ped-up! | %81
!ped! .D,2 .[A,DF]2 .[=G,D_F]2!ped-up! |!ped! .D,,2 .[A,F]2 .[A,F]2!ped-up! | %83
!ped! .D,2 .[A,F]2 .[=A,-F]2!ped-up! |!ped! [D,A,]2 .[B,F]2 [B,-F]2!ped-up! |!ped! B,6-!ped-up! | %86
!ped! [E,B,]2 .B,2 [B,-G]2!ped-up! |!ped! [E,B,]2 .[_CG]2 [C-G]2!ped-up! | %88
!ped! [E,C]2 .[=CG]2 .[CG]2-!ped-up! |!ped! C6-!ped-up! |!ped! [F,C]2 .[CA]2 .[CA]2!ped-up! | %91
!ped! .F,2[K:treble] .[B,=DA]2 .[B,DA]2!ped-up! |!ped! .G,2 .[B,EG]2 .[B,EB]2!ped-up! | %93
!ped! .=G,2 .[D_FB]2 .B,2 | .[_F=Gd]2 .D2 .[_GB_f]2!ped-up! | z6 | z6 | z6 || %98
[K:E][K:bass]!ped! .^B,,2 .[G,D]2 .[G,D]2!ped-up! |!ped! .C,2 .[G,E]2 .[G,E]2!ped-up! | %100
!ped! .G,,2 .[F,^B,]2 .[F,B,]2!ped-up! |!ped! .A,,2 .[E,C]2 .[E,C]2!ped-up! | %102
!ped! .F,,2 .[F,C]2 z2!ped-up! |!ped! .G,,2 .[E,G,]2 z2!ped-up! | %104
!ped! .G,,,2 z2 .[F,^B,]2!ped-up! |!ped! .C,2 .[G,E]2 .[G,E]2!ped-up! | %106
!ped! .^B,,2 .[G,D]2 .[G,D]2!ped-up! |!ped! .C,2 .[G,CE]2 .[G,CE]2!ped-up! | %108
!ped! .G,,2 .[F,^B,]2 .[F,B,]2!ped-up! |!ped! .A,,2 .[E,C]2 .[E,C]2!ped-up! | %110
!ped! .G,,2 z2 .[A,=DA]2!ped-up! | z6 |!ped! G,,2 [G,^B,F]2 [G,B,F]2!ped-up! | %113
!ped! .C,2 .[G,E]2 z2!ped-up! |!ped! .^B,,2 .[G,D]2 .[G,D]2!ped-up! | %115
!ped! .C,2 .[G,E]2 .[G,E]2!ped-up! |!ped! .G,,2 .[F,^B,]2 .[F,B,]2!ped-up! | %117
!ped! .A,,2 .[E,C]2 .[E,C]2!ped-up! |!ped! .F,,2 .[F,C]2 z2!ped-up! | %119
!ped! .G,,2 .[E,G,]2 z2!ped-up! |!ped! .G,,,2 z2 .[F,^B,]2!ped-up! | %121
!ped! .C,2 .[G,E]2 .[G,E]2!ped-up! |!ped! .^B,,2 .[G,D]2 .[G,D]2!ped-up! | %123
!ped! .C,2 .[G,CE]2 .[G,CE]2!ped-up! |!ped! .G,,2 .[F,^B,]2 .[F,B,]2!ped-up! | %125
!ped! .A,,2 .[E,C]2 .[E,C]2!ped-up! |!ped! .G,,2 z2 .[A,=DA]2!ped-up! | z6 | %128
!ped! G,,2 [G,^B,F]2 [G,B,F]2!ped-up! |!ped! .C,2 .[G,E]2!ped-up! z2 | %130
!ped! .C,,2 .[G,CE]2 .[G,CE]2!ped-up! |!ped! .D,,2 .[D,^A,C]2 .[D,A,C]2!ped-up! | %132
!ped! .G,,2 .[D,G,^B,]2 .[D,G,B,]2!ped-up! |!ped! .C,2 ([G,D]2 [G,C]2)!ped-up! | %134
!ped! .E,,2 .[E,A,]2 .[E,A,]2!ped-up! |!ped! .E,,2 .[F,A,]2 .[F,A,]2!ped-up! | %136
!ped! .E,,2 .G,2 .[E,G,]2!ped-up! |!ped! .A,,2 .[E,A,]2 .[D,A,]2!ped-up! | %138
!ped! .G,,2 .[G,D]2 .[G,D]2!ped-up! |!ped! .C,2 .G,2 .F,2!ped-up! | %140
!ped! .B,,2 .[B,F]2 .[B,F]2!ped-up! |!ped! E,6!ped-up! |!ped! .D,2[K:treble] .[B,DGB]2 z2!ped-up! | %143
[K:bass]!ped! .D,,2 .[C^^F]2 z2!ped-up! |!ped! .G,,2 .[^B,F]2 z2!ped-up! | z6 | %146
!ped! .C,2 .[G,CE]2 .[G,CE]2!ped-up! |!ped! D,6!ped-up! | %148
!ped! .G,,2 .[D,G,^B,]2 .[D,G,B,]2!ped-up! |!ped! .C,2 ([G,D]2 [G,C]2)!ped-up! | %150
!ped! .E,,2 .[E,A,]2 .[E,A,]2!ped-up! |!ped! .E,,2 .[F,A,]2 .[F,A,]2!ped-up! | %152
!ped! .E,,2 .G,2 .[E,G,]2!ped-up! |!ped! .A,,2 .[E,A,]2 .[D,A,]2!ped-up! | %154
!ped! .G,,2 .[G,D]2 .[G,D]2!ped-up! |!ped! .C,2 .[G,B,C]2 .[G,B,C]2!ped-up! | %156
!ped! .F,,2 .[^A,F]2 .[A,F]2!ped-up! |!ped! .B,,2 .[A,B,]2 .[A,B,]2!ped-up! | %158
!ped! .E,,2 .[B,,G,]2 .^E,,2!ped-up! |!ped! .F,,2 .[D,A,]2 z2!ped-up! | %160
!ped! .G,,2 .[E,C]2 .[F,^B,]2!ped-up! |!ped! .C,,2 .[G,E]2 z2!ped-up! | %162
!ped! .^B,,2 .[G,D]2 .[G,D]2!ped-up! |!ped! .C,2 .[G,E]2 .[G,E]2!ped-up! | %164
!ped! .G,,2 .[F,^B,]2 .[F,B,]2!ped-up! |!ped! .A,,2 .[E,C]2 .[E,C]2!ped-up! | %166
!ped! .F,,2 .[F,C]2 z2!ped-up! |!ped! .G,,2 .[E,G,]2 z2!ped-up! | %168
!ped! .G,,,2 z2 .[F,^B,]2!ped-up! |!ped! .C,2 .[G,E]2 .[G,E]2!ped-up! | %170
!ped! .^B,,2 .[G,D]2 .[G,D]2!ped-up! |!ped! .C,2 .[G,CE]2 .[G,CE]2!ped-up! | %172
!ped! .G,,2 .[F,^B,]2 .[F,B,]2!ped-up! |!ped! .A,,2 .[E,C]2 .[E,C]2!ped-up! | %174
!ped! .G,,2 z2 .[A,=DA]2!ped-up! | z6 |!ped! G,,2 [G,^B,F]2 [G,B,F]2!ped-up! | %177
!ped! .C,2 .[G,E]2 z2!ped-up! |!ped! .^B,,2 .[G,D]2 .[G,D]2!ped-up! | %179
!ped! .C,2 .[G,E]2 .[G,E]2!ped-up! |!ped! .G,,2 .[F,^B,]2 .[F,B,]2!ped-up! | %181
!ped! .A,,2 .[E,C]2 .[E,C]2!ped-up! |!ped! .F,,2 .[F,C]2 z2!ped-up! | %183
!ped! .G,,2 .[E,G,]2 z2!ped-up! |!ped! .G,,,2 z2 .[F,^B,]2!ped-up! | %185
!ped! .C,2 .[G,E]2 .[G,E]2!ped-up! |!ped! .^B,,2 .[G,D]2 .[G,D]2!ped-up! | %187
!ped! .C,2 .[G,CE]2 .[G,CE]2!ped-up! |!ped! .G,,2 .[F,^B,]2 .[F,B,]2!ped-up! | %189
!ped! .A,,2 .[E,C]2 .[E,C]2!ped-up! |!ped! .G,,2 z2 .[A,=DA]2!ped-up! | z6 | %192
!ped! G,,2 [G,^B,F]2 [G,B,F]2!ped-up! |!ped! z2 .[G,E]2!ped-up! z2 |] %194
V:3
 x2 | x6 | x6 | x6 | x6 | x6 | x6 | x6 | x6 | ((A4 G2-)) | GG GA A^A | (c4 B2-) | BB Bc c^^c | x6 | %14
 x6 | x6 | x6 | x6 | x6 | x6 | x6 | x6 | x6 | x6 | x6 | (A4 G2-) | G^A AB B^B | E6 | D6 | =D6 | %30
 C6 | x6 | x6 | x6 | x6 | x6 | x6 | x6 | x6 | x6 | x6 | x6 | x6 | x6 | x6 | x6 | x6 |!8va(! x6 | %48
 x2!8va)! x4 | x6 | x6 | x6 | x6 | x6 | x6 | x6 | x6 | x6 | x6 | x6 | x6 | x6 | x6 |!8va(! x6 | %64
 x2!8va)! x2 ||[K:Db] x2 | x6 | x6 | x6 | x6 | x6 | x6 | x6 | x6 | x6 | x6 | x6 | x6 | x6 | x6 | %80
 x6 | x6 | x6 | x6 | x6 | x6 | x6 | x6 | x6 | x6 | x6 | x6 | x6 | x6 | x6 | x6 | x6 | x6 || %98
[K:E] x6 | x6 | x6 | x6 | x6 | x6 | x6 | x6 | x6 | x6 | x6 | x6 | x6 | x6 |!8va(! x6 | %113
 x2!8va)! x4 | x6 | x6 | x6 | x6 | x6 | x6 | x6 | x6 | x6 | x6 | x6 | x6 | x6 | x6 |!8va(! x6 | %129
 x2!8va)! x4 | x6 | x6 | x6 | x6 | x6 | x6 | x6 | x6 | ((A4 G2-)) | GG GA A^A | (c4 B2-) | %141
 BB Bc c^^c | x6 | x6 | x6 | x6 | x6 | x6 | x6 | x6 | x6 | x6 | x6 | x6 | (A4 G2-) | G^A AB B^B | %156
 E6 | D6 | =D6 | C6 | x4 G2- | G4 x2 | x6 | x6 | x6 | x6 | x6 | x6 | x6 | x6 | x6 | x6 | x6 | x6 | %174
 x6 | x6 |!8va(! x6 | x2!8va)! x4 | x6 | x6 | x6 | x6 | x6 | x6 | x6 | x6 | x6 | x6 | x6 | x6 | %190
 x6 | x6 |!8va(! x6 | x2!8va)! x4 |] %194
V:4
 x2 | x6 | x6 | x6 | x6 | x6 | x6 | x6 | x6 | x6 | x2 C4 | x6 | z2 .[B,E]2 .[^A,E]2 | %13
 x2[K:treble] x4 |[K:bass] x6 | x6 | x6 | x6 | x2 .[^A,C]2 .[A,C]2 | x6 | x6 | x6 | x6 | x6 | x6 | %25
 x6 | x6 | x6 | x6 | x6 | x6 | x6 | x6 | x6 | x6 | x6 | x6 | x6 | x6 | x6 | x6 | x6 | x6 | x6 | %44
 x6 | x6 | x6 | x6 | x6 | x6 | x6 | x6 | x6 | x6 | x6 | x6 | x6 | x6 | x6 | x6 | x6 | x6 | x6 | %63
 x6 | x4 ||[K:Db] x2 | x6 | x6 | x6 | .E2 .D,2 .=D,2 | x6 | x6 | x6 | G2 .E,2 ._F,2 | x6 | x6 | %76
 x2[K:treble] x4 | x6 |[K:bass] x2[K:treble] x4 | x6 |[K:bass] x6 | x6 | x6 | x6 | x6 | %85
 z2 .D,2 .=D,2 | x6 | x6 | x6 | G2 .E,2 ._F,2 | x6 | x2[K:treble] x4 | x6 | x6 | x6 | x6 | x6 | %97
 x6 ||[K:E][K:bass] x6 | x6 | x6 | x6 | x6 | x6 | x6 | x6 | x6 | x6 | x6 | x6 | x6 | x6 | x6 | x6 | %114
 x6 | x6 | x6 | x6 | x6 | x6 | x6 | x6 | x6 | x6 | x6 | x6 | x6 | x6 | x6 | x6 | x6 | x6 | x6 | %133
 x6 | x6 | x6 | x6 | x6 | x6 | x2 C4 | x6 | z2 .[B,E]2 .[^A,E]2 | x2[K:treble] x4 |[K:bass] x6 | %144
 x6 | x6 | x6 | x2 .[^A,C]2 .[A,C]2 | x6 | x6 | x6 | x6 | x6 | x6 | x6 | x6 | x6 | x6 | x6 | x6 | %160
 x6 | x6 | x6 | x6 | x6 | x6 | x6 | x6 | x6 | x6 | x6 | x6 | x6 | x6 | x6 | x6 | x6 | x6 | x6 | %179
 x6 | x6 | x6 | x6 | x6 | x6 | x6 | x6 | x6 | x6 | x6 | x6 | x6 | x6 | C,4 z2 |] %194

